!!!OTL: "Der Einsiedler" WENN I KOMM WIEDER AUF DIE WELT
!!!ARE: Europa, Mitteleuropa, Deutschland, Boehmen
!!!SCT: Z1335
!!!YEM: Copyright 1995, estate of Helmut Schaffrath.
**kern
*ICvox
*Ivox
*M3/4
*k[f#]
*G:
{8d
=1
8g
8g
8a
8a
8b
16a
16b
=2
2cc}
{4b
=3
8.a
16g
8f#
8g
8a
8b
=4
2g
8r}
{8d
=5
8g
8g
8a
8a
8b
16a
16b
=6
2cc}
{4b
=7
8.a
16g
8f#
8g
8a
8b
=8
2g
8r}
{8g
=9
8f#
8g
4.a
8f#
=10
8g
8a
4.b}
{8g
=11
4e
8cc
8b
8dd
8cc
=12
12b
12cc
12dd
4a
8r}
{8d
=13
8g
8g
8a
8a
8b
16a
16b
=14
2cc}
{4b
=15
8.a
16g
8f#
8g
8a
8b
=16
2g
8r}
==
!!!AGN: Zech -, Schalks - Lied
!!!ONB: ESAC (Essen Associative Code) Database: ZUCCAL
!!!AMT: simple triple
!!!AIN: vox
!!!EED: Helmut Schaffrath
!!!EEV: 1.0
*-
